!!!!SEGMENT: pl-wtm--r-2038_smietanski-emil-wladyslaw--sonate-pour-piano.krn
!!!cenid: 18xx:2020
!!!COM: Śmietański, Emil Władysław
!!!COM-rismID: pe50041781
!!!CDT: 1845-1886
!!!CNT: Polish
!!!OTL: Sonate pour piano
!!!PDT: 1872
!!!AGN: Secular; Sonata
!!!SMS-siglum: PL-Wtm
!!!SMS-shelfmark: R 2038
!!!SMS-shelfwork: W
!!!SMS-variant:
!!!SMS-altvar:
!!!NIFC-rismSourceID: 1001114811
!!!NIFC-rismChildID: 1001114811
!!!NIFC-islandoraID: pl-wtm:29623
!!!URL-pdf-islandora: https://repozytorium.nifc.pl/islandora/object/pl-wtm%3A29623/datastream/PDF/view
!!!URL-scan: https://polish.musicsources.pl/pl/lokalizacje/galeria/rekopisy/6530 @EN{Scan on Polish Music Sources Website} @PL{Skany w portalu Dziedzictwo Muzyki Polskiej w otwartym dostępie}
!!!IIIF:
!!!ONB-nifc:
!!!OMD: Allegro risolut.
!!!AIN: 1 piano
!!!key:
**kern	**kern
*part1	*part1
*staff2	*staff1
*Ipiano	*Ipiano
*I"Piano	*I"Piano
*I'pf	*I'pf
*clefF4	*clefG2
*k[]	*k[]
*C:	*C:
*M2/2	*M2/2
*met(c|)	*met(c|)
!!LO:TX:t=P:problem:all\right or left:global
=1	=1
4.CC\ 4.C	4.E</ 4.G< 4.c<
8CC\ 8C	8E</ 8G< 8c<
4CC\ 4C	4F</ 4A< 4d<
4CC\ 4C	4G</ 4B-X< 4e<
=2	=2
4FFF/ 4FF	4A/ 4c 4g
4FFF/ 4FF	4A/ 4c 4f
4r	4r
4AAA/ 4AA	4G/ 4c#X 4e
=3	=3
4.DD\ 4.D	4.A</ 4.d<
8DD\ 8D	8A</ 8d<
4DD\ 4D	4G</ 4c#X< 4e<
4DD\ 4D	4A</ 4d< 4f<
=4	=4
4GGG/ 4GG	4B/ 4d 4a
4GGG/ 4GG	4B/ 4d 4g
4r	4r
4FF\ 4F	4B/ 4d 4g
=5	=5
8EE\L	4.G/ 4.c 4.g
8BB\	.
8E\	.
8C\J	8f/
8AA\L	8G/L 8c#X 8f
8E\	8e/
8G\	8d/
8F\J	8c#X/J
=6	=6
8FF\L	16A/LL 16d
.	16e/
8D\	16d/
.	16c#X/JJ
8F\	8d/L
8D\J	8e/J
8DD\L	8A/L 8d 8f
8D\	8f/
8F\	8g/
8D\J	8a/J
=7	=7
8GG\L	8c/L 8e 8a
8C\	8g/
8E\	8f/
8C\J	8e/J
8GG\L	8G/L 8B 8e
8D\	8d/
8F\	8c/
8D\J	8B/J
!!LO:LB:g=original
=8	=8
4.CC\ 4.GG 4.C	4.E</ 4.G< 4.c<
8CC\ 8C	8c\ 8cc
8BBB\L 8BB	8B\L 8b
8CC\ 8C	8c\ 8cc
8DD\ 8D	8d\ 8dd
8EE\J 8E	8e\J 8ee
=9	=9
!LO:N:vis=8	!
8.AAA\L 8.AA	8.g\L 8.cc 8.gg
16AA\Jk 16C 16F 16A	16f\Jk 16cc 16ff
4AA\ 4C 4F 4A	4f\ 4cc 4ff
4r	4r
4AA\ 4C#X 4A	4e\ 4g 4a 4ee
=10	=10
4.DD\ 4.AA 4.D	4.d\ 4.f 4.a 4.dd
8DD\ 8D	8d\ 8dd
8CC#X\L 8C#X	8c#X\ 8cc#X
8DD\ 8D	8d\L 8dd
8EE\ 8E	8e\ 8ee
8FF\J 8F	8f\J 8ff
=11	=11
!LO:N:vis=8	!
8.BBB/L 8.BB	8.a\L 8.dd 8.gg
16BB/Jk 16D 16G	16g\Jk 16dd 16gg
4BB/ 4D 4G	4g\ 4dd 4gg
4r	4r
8GG\L 8G	4g\ 4b 4dd 4gg
8FF\J 8F	.
=12	=12
8EE\L 8E	4.g\ 4.cc 4.gg
8E\	.
8G\	.
8c\J	8ff\
8AA\L	16g\LL 16cc#X 16ff
.	16gg\
8E\	16ff\
.	16ee\JJ
8A\	16g\LL 16dd
.	16ee\
8c#X\J	16dd\
.	16cc#\JJ
=13	=13
8D\L 8F	8f\L 8a 8dd
8F\	16ee\L
!	!LO:TX:t=cis
.	16cc#X\JJ
8A\	8cc#\L
8d\J	8ee\J
8DD\L 8D	8a\L 8dd 8ff
8F\	32gg\LL
.	32ff\
.	32ee\
.	32ff\JJJ
8A\	8gg\L
8d\J	8aa\J
=14	=14
8GG\L	8cc\L 8ee 8aa
8E\	8gg\
8G\	8ccc\
8c\J	8cc\J
*	*2\right
8GG\L	2ddTT\
8F\	.
8G\	.
8B\J	.
=15	=15
16C\LL	8cc\
16c\	.
16B\	8r
16c\JJ	.
16d\LL	16r
16c\	16g\LL
16B\	16a\
16c\JJ	16g\JJ
16E\LL	8g\L 8cc 8gg
16c\	.
16B\	8gg\
16c\JJ	.
16D\LL	8g\ 8dd 8ff
16c\	.
16B\	8ff\J
16c\JJ	.
!!LO:LB:g=original
=16	=16
16C\LL	8g\ 8cc 8ee
16c\	.
16B\	8r
16c\JJ	.
16B\LL	8f\ 8g 8dd
16A\	.
16B\	8r
16G\JJ	.
16c\LL	8e\ 8g 8cc
16B\	.
16c\	8r
16G\	.
16E\	4r
16G\	.
16E\	.
16C\JJ	.
=17	=17
16GG\LL	4d\ 4g 4b
16G\	.
16F#X\	.
16G\JJ	.
16A\LL	16r
16G\	16g\LL
16F#\	16a\
16G\JJ	16g\JJ
16d\LL	8b\L 8ff
16G\	.
16F#\	8ff\
16G\JJ	.
16c\LL	8cc\ 8ee
16G\	.
16F#\	8ee\J
16G\JJ	.
=18	=18
16BB\LL	8f\ 8g 8dd
16G\	.
16F#X\	8r
16G\JJ	.
16C\LL	8e\ 8g 8cc
16G\	.
16F#\	8r
16G\JJ	.
16GG\LL	8d\ 8g 8b
16G\	.
16F#\	8r
16G\JJ	.
16D\LL	4r
16G\	.
16Fn\	.
16D\JJ	.
=19	=19
16E\LL	4e\ 4g 4cc
16c\	.
16B\	.
16c\JJ	.
16d\LL	16r
16c\	16cc\LL
16B\	16dd\
16c\JJ	16cc\JJ
16C\LL	8a\L 8ee 8aa
16e\	.
16A\	8aa\
16e\JJ	.
16C#X\LL	8a\ 8gg
16e\	.
16A\	8gg\J
16e\JJ	.
=20	=20
16D\LL	8a\ 8ff#X
16d\	.
16A\	8r
16d\JJ	.
16E\LL	8a\ 8ee
16c#X\	.
16G\	8r
16c#\JJ	.
16F#X\LL	4.a\ 4.dd
16d\	.
16A\	.
16d\JJ	.
16A\LL	.
16F#\	.
16D\	16ee\LL
16C\JJ	16ff#\JJ
=21	=21
16BB\LL	16dd\LL 16gg
16D\	16ff#X\
16G\	16aa\
16A\JJ	16gg\JJ
16B\LL	8dd\
16G\	.
16D\	8r
16C\JJ	.
16BB\LL	16dd\LL 16gg
16D\	16ff#\
16G\	16aa\
16A\JJ	16gg\JJ
16B\LL	8dd\
16G\	.
16D\	8r
16BB\JJ	.
=22	=22
16GG\LL	16b\LL 16ee
16BB\	16dd#X\
16E\	16ff#X\
16F#X\JJ	16ee\JJ
16G\LL	8b\
16E\	.
16BB\	8r
16GG\JJ	.
16EE\LL	16g\LL 16b
16GG\	16a#X\
16BB\	16cc\
16D#X\JJ	16b\JJ
16E\LL	8g\
16BB\	.
16GG\	8r
16EE\JJ	.
=23	=23
8CC\	16e\LL 16a
.	16g#X\
16d\LL	16b\
16c\JJ	16a\JJ
16A\LL	16cc\LL
16G#X\	16b\
16B\	16dd\
16A\JJ	16cc\JJ
*	*rep
8C\	16e\LL 16a
.	16g#X\
16d\LL	16b\
16c\JJ	16a\JJ
16A\LL	16cc\LL
16G#\	16b\
16B\	16dd\
16A\JJ	16cc\JJ
*	*Xrep
!!LO:LB:g=original
=24	=24
8C\L	16a/LL
.	16g#X/
16d\L	16b/
16c\JJ	16a/
16A\LL	16cc/
16G#X\	16b/
16B\	16dd/
16A\JJ	16cc/JJ
16c\LL	16ee/LL
16B\	16dd/
16A\	16cc/
16G#\JJ	16b/JJ
16A\LL	16cc/LL
16B\	16b/
16c\	16a/
16c#X\JJ	16g#/JJ
=25	=25
8D\L 8A	16f#X/LL
.	16d/
8DD\J	16f#/
.	16a/JJ
8DD\L	16dd/LL
.	16cc/
8D\J 8F#X	16b/
.	16a/JJ
8D\L 8G	16b/LL
.	16g/
8DD\J	16b/
.	16dd/JJ
8DD\L	16gg/LL
.	16dd/
8D\J 8B	16b/
.	16g/JJ
=26	=26
8D\L 8A	16f#X/LL
.	16a/
8DD\J	16dd/
.	16ff#X/JJ
8DD\L	16aa\LL
.	16ff#\
8D\J 8F#X	16dd\
.	16cc\JJ
8D\L 8G	16b\LL
.	16dd\
8DD\J	16gg\
.	16bb\JJ
8DD\L	16ddd\LL
.	16bb\
8D\J 8B	16aa\
.	16gg\JJ
=27	=27
16D\LL 16A	16ff#X\LL
16d\	16ddd\
16A\	16aa\
16F#X\JJ	16ff#\JJ
16D\LL	16dd\LL
16A\	16aa\
16F#\	16ff#\
16D\JJ	16dd\JJ
16AA\LL	16a\LL
16F#\	16ff#\
16D\	16dd\
16AA\JJ	16a\JJ
16FF#X\LL	16f#X\LL
16D\	16dd\
16AA\	16a\
16FF#\JJ	16f#\JJ
=28	=28
4DD\	4d\
4D\ 4F#X 4A 4d	4f#X\ 4a 4dd
4DD\ 4D	4F#X</ 4A< 4d<
4r	4r<
=29	=29
*	*^
4GG\	2d/	2B\
4G\	.	.
4BB\	4g/	2d\
4G\	4f#X/	.
=30	=30	=30
4C\	2.e/	2.c\
4G\	.	.
4C\ 4E	.	.
4BB\ 4D	8f#X/L	4d\
.	8g#X/J	.
=31	=31	=31
*^	*	*
4C\	4AA\	4a/	1e
4BB\	4GG#X\	4b/	.
*	*2\right	*	*
4C/	2AA\	4a/	.
4C#X/	.	4gn/	.
*v	*v	*	*
=32	=32	=32
4DD/ 4D	2.f#X/	2.d\
4AA/	.	.
4D/	.	.
4F#X/	8.d/L	4ryy
.	16d/Jk	.
*	*v	*v
!!LO:LB:g=original
=33	=33
4GG/	2d/ 2b
!LO:N:vis=8	!
8.G/L	.
16F#X/Jk	.
4E/	4g/ 4cc
4D/	4g#X/ 4b
=34	=34
*	*^
4C/	[>2a/	2e\
4BB/	.	.
4C/	8a/L]	2A\
.	8g/	.
4C#X/	8f#X/	.
.	8e/J	.
*	*v	*v
=35	=35
4D/	4Bm/ 4d
8.E/L	8.g/L
16D/Jk	16G/Jk 16B
4C/	4G/ 4A
4D/	4F#X/ 4d
=36	=36
4GG/ 4BB	8G/L
.	8d/
4r	8e/
.	8f#X/J
2r	8g/L
.	8a/
.	8b/
.	8cc/J
=37	=37
*	*^
8GG\L	2dd/	1b
8D\	.	.
8G\	.	.
8A\J	.	.
8B\L	4gg/	.
8c\	.	.
8d\	4ff#X/	.
8d#X\J	.	.
=38	=38	=38
8e\L	2.eeS/	2.cc\
8c\	.	.
8G\	.	.
8E\J	.	.
8C\L	.	.
8E\	.	.
8C\	8ff#X/L	4b\
8E\J	8gg#X/J	.
=39	=39	=39
8C\L	8aa/L	4.ee\
8E\	8gg#X/	.
8F#X\	8aa/	.
8G#X\J	8bb/J	8dd\
8A\L	8bb/L	8cc\L
8B\	8aa/	8dd\J
8c\	8aa/	4ee\
8c#X\J	8ggn/J	.
=40	=40	=40
8d\L	4.gg/	2.a\
8c#X\	.	.
8e\	.	.
8c#\J	16aa/LL	.
.	16gg/JJ	.
*	*Xtuplet	*
8d\L	12ff#X/L	.
.	12dd/	.
8cn\	.	.
.	12ee/J	.
8B\	12ff#/L	4r
.	12gg/	.
8A\J	.	.
.	12aa/J	.
=41	=41	=41
8G/L	2bb/	2dd/
8GG/	.	.
8G/	.	.
8F/J	.	.
.	32qddd\	.
8E/L	4gg/ 4ccc	2ryy
8EE/	.	.
8E/	4gg#X/ 4bb	.
8D/J	.	.
=42	=42	=42
8C/L	16aa/LL	[<2ee\
.	16bb/	.
8CC/	16aa/	.
.	16gg#X/JJ	.
8C/	8aa/L	.
16AA/L	16ccc/L	.
16BB/JJ	16bb/JJ	.
!!LO:LB:g=original
=-	=-	=-
8C/L	8aa/L	8ee\L]
8BB/	8gg#/	8dd\J
8AA/	8ff#X/	4cc\
8A/J	8ee/J	.
=43	=43	=43
8D\L	4ddS/	4b/
8G\	.	.
8B\	8.b/L 8.gg	4ryy
8d\J	.	.
.	16g/Jk 16b	.
8D\L	8.a/L	4g\
8A\	.	.
.	16a/Jk	.
8c\	8.dd/L	4f#X\
8d\J	.	.
.	16dd/Jk	.
*	*v	*v
=44	=44
!LO:TX:t=P:problem=zapis poprawiany	!
8BB\L	8g/
8D\ 8G 8B	4d/
8D\ 8G 8B	.
8D\J 8G 8B	16g/LL
.	16a/JJ
8D\L 8G 8B	8b/L
8D\ 8G 8B	8dd/
8E\	8cc/
8G#X\J 8d	8b/J
=45	=45
8C\L	8a/
8E\ 8A 8c	4e/
8E\ 8A 8c	.
8E\J 8A 8c	16a/LL
.	16b/JJ
8E\L 8A 8c	8cc/L
8E\ 8A 8c	8ee/
8C\	8dd/
8E\J 8A 8c	8cc/J
=46	=46
8D\L	8b/L
8D\ 8G 8B	8gg/
8D\ 8G 8B	8dd/
8D\J 8G 8B	8b/J
8DD\L	8a/L
8D\ 8F#X 8c	16ee/L
.	16dd/
8D\ 8F# 8c	16cc/
.	16b/
8D\J 8F# 8c	16cc/
.	16a/JJ
=47	=47
8GG\L	8g/
8D\ 8G 8B	4dd/
8D\ 8G 8B	.
8D\J 8G 8B	16gg/LL
.	16aa/JJ
8D\L 8G 8B	16cc\LL 16bb
.	16aa\
8D\ 8G 8B	16bb\
.	16ddd\JJ
8EE\	16ee\LL 16ddd
.	16ccc\
8E\J 8G#X 8d	16ccc\
.	16bb\JJ
=48	=48
8CC\L	8aa\
8E\ 8A 8c	4ee\
8E\ 8A 8c	.
8E\J 8A 8c	16aa\LL
.	16bb\JJ
8E\L 8A 8c	16ee\LL 16ccc
.	16bb\
8E\ 8A 8c	16ccc\
.	16eee\JJ
8CC\	16ee\LL 16aa 16eee
.	16ddd\
8E\J 8A 8c	16ddd\
.	16ccc\JJ
=49	=49
8DD\L 8D	16gg\LL 16bb
.	16ddd\
8D\ 8G 8B 8d	16ggg\
.	16fff#X\JJ
8D\ 8G 8B 8d	16eee\LL
.	16ddd\
8D\J 8G 8B 8d	16ccc\
.	16ddd\JJ
8DD\L	16aa\LL
.	16gg\
8D\ 8F#X 8c 8d	16ff#X\
.	16ee\JJ
8D\ 8F# 8c 8d	16dd\LL
.	16cc\
8D\J 8F# 8c 8d	16b\
.	16a\JJ
=50	=50
8G\L 8g	16b\LL
.	16dd\
8GG\J 8G	16gg\
.	16ff#X\JJ
8BB\L 8B	16ee\LL
.	16dd\
8BBB\J 8BB	16cc\
.	16b\JJ
8C\L 8c	16a\LL
.	16g\
8CC\J 8C	16f#X\
.	16e\JJ
8D\L 8d	16d\LL
.	16c\
8DD\J 8D	16B\
.	16A\JJ
=51	=51
4GGG\ 4GG	4G\
4G\ 4B 4d	4g\ 4b 4dd 4gg
4GGG\ 4GG	4G/
4r	4r
!!LO:LB:g=original
=52:|!	=52:|!
4.GG\ 4.G	4.B-X/ 4.d 4.g
8GG\ 8G	8B-/ 8d 8g
4GG\ 4G	4c/ 4e-X 4f#X 4a
4GG\ 4G	4B-/ 4d 4g 4b-X
=53	=53
4EE-X\ 4E-y	4g/ 4dd
4EE-\ 4E-	4g/ 4cc
2r	4r
.	4b-X/
=54	=54
4.C\ 4.c	4.e-X\ 4.g 4.a
8C\ 8c	8e-\ 8g 8a
4BB\ 4B	4e-\ 4g 4b
4AA\ 4A	4e-\ 4g 4cc
=55	=55
!	!LO:TX:t=P:problem=zapis poprawiany
4FF#X\ 4F#X	4a\ 4cc 4ee-X
!	!LO:TX:t=P:problem=zapis poprawiany
4FF#\ 4F#	4a\ 4cc 4dd
2r	4r
.	4dd\
=56	=56
*	*^
8G\L 8B-X	4.dd/	2ryy
8A\	.	.
8B-\	.	.
8c\J	8cc/	.
8r	8cc/L	2d\
8GG\L	8b-X/	.
8AA\	8a/	.
8BB-X\J	8g/J	.
=57	=57	=57
2AA\	4.a/	8c#X\L
.	.	8A\
.	.	8B\
.	8g/	8c#\J
2BB-X\	8g/L	4d\
.	8f/	.
.	8e/	4ryy
.	8d/J	.
*	*v	*v
=58	=58
*^	*
4B/	4GG\ 4B	8e\L
.	.	8g\
8G\L	4ryy	8ee\
8F\J 8A	.	8dd\J
8E\L 8A	2ryy	2cc#Xtt\
8G\	.	.
8AA\ 8F	.	.
8E\J	.	.
*v	*v	*
=59	=59
4.DD\ 4.D	4.d\ 4.f 4.a 4.dd
8DD\ 8D	8F/ 8A 8d
4DD\ 4D	4G/ 4A 4c#X 4e
4DD\ 4D	4F/ 4A 4d 4f
!!LO:LB:g=original
=60	=60
!	!LO:TX:t=P:problem=zapis poprawiany
4BBB-X\ 4BB-X	4d/ 4a
!	!LO:TX:t=P:problem=zapis poprawiany
4BBB-\ 4BB-	4d/ 4g
2r	4r
.	4f\
=61	=61
4.GG\ 4.G	4.B-X/ 4.d 4.e
8GG\ 8G	8B-/ 8d 8e
4FF\ 4F	4B-/ 4d 4f
4EE\ 4E	4B-/ 4d 4g
=62	=62
*	*^
!	!LO:TX:t=P:problem=zapis poprawiany	!
4CC#X\ 4C#X	4e/ 4g 4b-X	1r
!	!LO:TX:t=P:problem=zapis poprawiany	!
4CC#\ 4C#	4e/ 4g 4a	.
2ryy	4r	.
.	4aa\	.
=63	=63	=63
*^	*	*
8F/L	2D\	4.aa/	2a\
8A/	.	.	.
8Bn/	.	.	.
8c#X/J	.	8gg/	.
8d/	8r	8gg/L	2r
8r	8D\L	8ff/	.
8r	8E\	8ee/	.
8A/	8F\J	8dd/J	.
*	*	*v	*v
=64	=64	=64
8G#X/L	2E\	4.bn\ 4.ee
8E/	.	.
8F#X/	.	.
8G#/J	.	8dd\
4A/	2Fn\	8a\L 8dd
.	.	8cc\
8B/L	.	8b\
8c/J	.	8a\J
*v	*v	*
=65	=65
4D\	8f\L 8b
.	8dd\
8d\L 8f	8bb\
8c\J 8e	8aa\J
8B\L 8e	2gg#Xtt\
8d\	.
8E\ 8c	.
8B\J	.
=66	=66
4.AA\ 4.A	8cc\L 8aa
.	8cc\ 8ee
.	8dd\ 8ff
8AA\ 8A	8cc\J 8ee
4BB\ 4B	8g#X\L 8dd
.	16f#X\L
.	16g#\JJ
4C\ 4c	8a\L 8cc
.	8e\Jk 8g#
=67||	=67||
*^	*
!	!	!LO:TX:t=P:problem=mixed beam
4.d/	4.F\	16a/LL
.	.	16aa\
.	.	16a\
.	.	16aa\JJ
.	.	16a\LL
.	.	16ff\ 16aa
8d/	8F\	16a\
.	.	16aa\JJ
4c/	4E\	16g#X\LL
.	.	16ee\ 16gg 16aa
.	.	16a\
.	.	16aa\JJ
4B/	4D\	16dd\LL
.	.	16ff\
.	.	16dd\
.	.	16ff\JJ
=68	=68	=68
!	!	!LO:TX:t=P:problem=takt dopisany na brzegu kartki
4G#X/	4E\	16b\LL
.	.	16dd\
.	.	16b\
.	.	16dd\JJ
4A/	4C\	4cc\
2ryy	2ryy	4ee\
!	!	!LO:TX:t=P:problem=wykreślone pół taktu
.	.	4cc\
*v	*v	*
!!LO:LB:g=original
=69	=69
!	!LO:TX:t=P:problem=zapis poprawiany
4E\ 4e	16f/LL 16a
.	16b/
.	16a/
.	16g#X/JJ
4D\ 4d	16a/LL 16dd
.	16cc/
.	16ff/
.	16ee/JJ
2r	16dd/LL
.	16cc/
.	16b/
.	16cc/JJ
.	16dd\LL
.	16cc\
.	16b\
.	16a\JJ
=70	=70
!	!LO:TX:t=P:problem=zapis niewyraźny
4.EE/ 4.E	16B\LL 16g#X
.	16e\
.	16f\
.	16d\JJ
.	16d\LL
.	16c\
8DD/ 8D	16B\ 16g#
.	16e\JJ
4CC/ 4C	16A/LL 16a
.	16e/
.	16f/
.	16e/JJ
4BBB/ 4BB	16g#/LL 16b
.	16e/
.	16f/
.	16e/JJ
=71	=71
4BBB/ 4BB	16g#X/LL 16dd
.	16e/
.	16f#X/
.	16g#/JJ
4AAA/ 4AA	16a/LL 16cc
.	16e/
.	16fn/
.	16e/JJ
2r	16c/LL
.	16e/
.	16c/
.	16A/JJ
.	16A</LL
.	16G#X</
.	16A</
.	16Gn</JJ
=72	=72
16F\LL	4.a\ 4.dd
16f\	.
16F\	.
16f\JJ	.
16F\LL	.
16f\	.
16E\	8g#X\ 8dd
16e\JJ	.
16AA\LL	4a\ 4cc
16A\	.
16AA\	.
16A\JJ	.
16DD\LL	4f\ 4b
16D\	.
16DD\	.
16D\JJ	.
=73	=73
4.EE\ 4.E	16e\LL 16g#X
.	16b\
.	16g#\
.	16b\JJ
.	16a\LL
.	16cc\
8E\ 8e	16a\
.	16cc\JJ
4E\ 4d	16g#\LL
.	16b\
.	16g#\
.	16b\JJ
16F\LL 16c	4a\
16E\	.
16F\	.
16E\JJ	.
!!LO:LB:g=original
=74	=74
16F\LL 16A	4.a\ 4.dd
16f\	.
16F\	.
16f\JJ	.
16F\LL	.
16f\	.
16E\	8g#X\ 8dd
16e\JJ	.
16AA\LL	4a\ 4cc
16A\	.
16AA\	.
16A\JJ	.
16DD\LL	4f\ 4b
16D\	.
16DD\	.
16D\JJ	.
=75	=75
4.EE\ 4.E	16e\LL 16g#X
.	16b\
.	16g#\
.	16b\JJ
.	16a\LL
.	16cc\
8E\ 8e	16a\
.	16cc\JJ
4E\ 4d	16g#\LL
.	16b\
.	16g#\
.	16b\JJ
16F\LL 16c	4a\
16E\	.
16F\	.
16E\JJ	.
=76	=76
8D#X\ 8A 8c	16a\LL
.	16ccc\
*clefG2	*
16a/LL	16aa\
16f#X/JJ	16ff#X\JJ
16d#X/LL	16dd#X\LL
16a/	16aa\
16f#/	16ff#\
16d#/JJ	16dd#\JJ
*clefF4	*
16c\LL	16cc\LL
16g\	16ff#\
16d#X\	16dd#\
16c\JJ	16cc\JJ
16A\LL	16a\LL
16d#\	16dd#\
16c\	16cc\
16A\JJ	16a\JJ
=77	=77
16F#X\LL	16f#X\LL
16c\	16cc\
16A\	16a\
16F#\JJ	16f#\JJ
16D#X\LL	16d#X\LL
16A\	16a\
16F#\	16f#\
16D#\JJ	16d#\JJ
16C\LL	16c/LL
16F#\	16f#/
16D#\	16d#/
16C\JJ	16c/JJ
16AA\LL	16A/LL
16D#\	16d#/
16C\	16c/
16AA\JJ	16A/JJ
=78	=78
16FF#X\LL	16F#X</LL
16C\	16c</
16AA\	16A</
16FF#\JJ	16F#</JJ
16DD#X/LL	16D#X</LL
16AA/	16A</
16FF#/	16F#</
16DD#/JJ	16D#</JJ
16FF#\LL	16F#</LL
16C\	16c</
16AA\	16A</
16FF#\JJ	16F#</JJ
16DD#\LL	16E</LL
16AA\	16A</
16FF#\	16F#</
16DD#\JJ	16D#</JJ
=79||	=79||
*	*^
!	!LO:TX:t=P:problem=zapis niewyraźny	!
8.F\L	16dd/LL	4.a\
.	16cc/	.
.	16dd/	.
16E\Jk	16ee/JJ	.
4ryy	16ff/LL	.
.	16gg/	.
.	16ff/	8a\
.	16ee/JJ	.
4ryy	2ryy	4b\
!	!	!LO:TX:t=P:problem=wykreślone pół taktu
4G#X\	.	4cc\
=80	=80	=80
16D\LL	4.ff/	4.a\
16A\	.	.
16d\	.	.
16e\JJ	.	.
16d\LL	.	.
16c\	.	.
16d\	8ff/	8a\
16A\JJ	.	.
16G#X\LL	4ee/	4b\
16A\	.	.
16G#\	.	.
16E\JJ	.	.
16A\LL	4ee/	4cc\
16AA\	.	.
16GG#X\	.	.
16AA\JJ	.	.
=81	=81	=81
!	!LO:TX:t=P:problem=wykreślone pół taktu	!
16C\LL	4gg/	4ee\
16E\	.	.
16D\	.	.
16C#X\JJ	.	.
4ryy	4dd/	4dd\
2ryy	2ryy	2r
*	*v	*v
!!LO:LB:g=original
=82	=82
!	!LO:TX:t=P:problem=mixed beam
8EE\	8E/L
4E\	8e\ 8g#X 8b 8dd 8ee
.	8e\ 8g# 8b 8dd 8ee
16G#X\LL	8e\J 8g# 8b 8dd 8ee
16A\JJ	.
*	*tremolo
8B\L	8e\L 8g# 8b 8dd 8ee
8d\	8e\ 8g# 8b 8dd 8ee
8c\	8e\ 8g# 8b 8dd 8ee
8B\J	8e\J 8g# 8b 8dd 8ee
=83	=83
8A\	8e\L 8a 8cc 8ee
4E\	8e\ 8a 8cc 8ee
.	8e\ 8a 8cc 8ee
16A\LL	8e\J 8a 8cc 8ee
16B\JJ	.
8c\L	8e\L 8a 8cc 8ee
8e\	8e\ 8a 8cc 8ee
8d\	8e\ 8a 8cc 8ee
8c\J	8e\J 8a 8cc 8ee
*	*Xtremolo
=84	=84
8E\ 8B	8e\ 8g#X 8dd 8ee
*clefG2	*
8d/L 8e 8g#X 8b	4ee\
8d/ 8e 8g# 8b	.
8d/J 8e 8g# 8b	16gg#X\LL
.	16aa\JJ
*tremolo	*
8d/L 8e 8g# 8b	8bb\L
8d/ 8e 8g# 8b	8ddd\
8d/ 8e 8g# 8b	8ccc\
8d/J 8e 8g# 8b	8bb\J
*Xtremolo	*
=85	=85
8E/L	8aa\
8c/ 8e 8a	4ee\
8c/ 8e 8a	.
8c/J 8e 8a	16aa\LL
.	16bb\JJ
*tremolo	*
8c/L 8e 8a	8ccc\L
8c/ 8e 8a	8eee\
8c/ 8e 8a	8ddd\
8c/J 8e 8a	8ccc\J
*Xtremolo	*
*clefF4	*
=86	=86
!LO:TX:t=P:problem=brak zmiany klucza	!
8D\L 8d	8aa\L 8fff
16D\L 16A	16aa\L 16fff
16C#X\JJ	16eee\JJ
8D\L	8ff\L 8ddd
16D\L 16d	16ff\L 16ddd
16e\JJ	16gg\JJ 16ccc#X
8d\L 8f	16aa\LL 16fff
.	16bb\
8f\J 8a	16aa\ 16fff
.	16ff\JJ
8e\L 8g	16aa\LL 16ccc#
.	16cc#X\
8d\J 8f	16aa\ 16ddd
.	16dd\JJ
=87	=87
*^	*
8c/ 8e	8C\L	8ee\L 8aa 8eee
4A/	16C\L	16aa\L 16eee
.	16BB\JJ	16ddd#X\J
!LO:N:vis=4	!	!
.	8C\	8aa\ 8eee
16c/LL	16A\LL	16ee\L 16ccc
16d/JJ	16B\JJ	16bb\JJ
8e/L	8c\L	16ee\LL 16aa
.	.	16ff\
8a/J	8c\J	16ee\ 16aa
.	.	16a\JJ
8f/L	8d\L	16b\LL 16gg#X
.	.	16g#X\
8e/J	8c\J	16cc\ 16aa
.	.	16a\JJ
*v	*v	*
=88	=88
*	*^
!LO:TX:t=P:problem=zapis nieczytelny	!	!
16C\LL	4aa/	4ee\
16BB\	.	.
16C\	.	.
16C#X\JJ	.	.
16D\LL	4ff/	4dd\
16C#\	.	.
16D\	.	.
16C#\JJ	.	.
16D\LL	2r	2ryy
16DD\	.	.
16FF\	.	.
16AA\JJ	.	.
16D\LL	.	.
16E\	.	.
16F\	.	.
16D\JJ	.	.
=89	=89	=89
!LO:TX:t=P:problem=zapis nieczytelny	!	!
16E\LL	4.ee/	4.f#X\
16D\	.	.
16E\	.	.
16F\JJ	.	.
16E\LL	.	.
16D\	.	.
16C\	8ee/	8g\
16BB\JJ	.	.
16C\LL	4ee/	4a\
16BB\	.	.
16ryy\	.	.
16ryy\JJ	.	.
16GG#X\LL	4dd/	4b\
16FF\	.	.
16GG#\	.	.
16EE\JJ	.	.
=90	=90	=90
!LO:TX:t=P:problem=zapis nieczytelny	!	!
4DD\	4ff/	4dd\
4AA\	4ee/	4cc\
2ryy	2ryy	2r
*	*v	*v
!!LO:LB:g=original
=91	=91
16D\LL 16A	8a\ 8ff 8aa
16d\	.
16f\	4a\ 4ff 4aa
16e\JJ	.
16d\LL	.
16c\	.
16B\	8a\ 8ff 8aa
16A\JJ	.
16E\LL 16G#X	8b\ 8ee 8bb
16F\	.
16E\	4b\ 4ee 4bb
16D\JJ	.
16C\LL	.
16BB\	.
16AA\	8b\ 8ee 8bb
16GG#X\JJ	.
=92	=92
16AA\LL	8cc\ 8aa 8ccc
16C\	.
16F\	4a\ 4cc 4aa
16E\	.
16D\	.
16C\	.
16BB\	8a\ 8cc 8aa
16AA\JJ	.
16GG#X\LL	8ee\ 8bb 8eee
16FF\	.
16EE\	4ee\ 4bb 4eee
16DD\	.
16CC\	.
16BBB\	.
16AAA\	8ee\ 8bb 8eee
16GGG#X\JJ	.
=93	=93
4.AAA\ 4.AA	4.aa\ 4.aaa
8AAA\ 8AA	8A/
4BBB\ 4BB	4B/
4CC\ 4C	4c/
=94	=94
!	!LO:TX:t=P:problem=zapis poprawiany
4EE\ 4E	4e/
!	!LO:TX:t=P:problem=zapis poprawiany
4DD\ 4D	4d/
2r	4r
.	4r
=95	=95
*Xtuplet	*
12d\L	[<4a\ 4ff
12c#X\	.
12d\J	.
4cn\	8a\L] 8ee
.	8g#X\
12c\L	8a\
12B\	.
.	8e\J
12c\	.
12e\	8r
12a\	.
!	!LO:N:vis=4
.	8r
12c\J	.
=96	=96
12B\L 12d	4gg#X\
12e\	.
12d\J	.
8A\ 8c	12aa\L
.	12ee\
8r	.
.	12ff\J
2r	12ee\L
.	12cc\
.	12a\
.	12e\
!	!LO:TX:t=P:problem=zapis poprawiany
.	12c\
.	12A\J
=97	=97
4.GGG\ 4.GG	4.G</
8GGG\ 8GG	8G</
4AAA\ 4AA	4A</
4BBB\ 4BB	4B</
=98	=98
!	!LO:TX:t=P:problem=zapis poprawiany
4DD-X\ 4D-X	4d-X</
4CC\ 4C	4c</
2r	2r<
!!LO:PB:g=original
=99	=99
*	*^
12c\L	4ee-X/	[<4g\
12B\	.	.
12c\J	.	.
[>4B\	4dd/	12g\L]
.	.	12f#X\
.	.	12g\J
12B\L]	2r	8d\
12A#X\	.	.
.	.	8r
12B\J	.	.
12d\L	.	4r
12g\	.	.
12B\J	.	.
*	*v	*v
=100	=100
12A-X\L 12c	4ff#X\
12d\	.
12c\J	.
12G\L 12B	12gg\L
12Fn\ 12f	12ffn\
12D\J 12d	12dd\J
12BB\L 12B	12b\L
12GG\ 12G	12g\
12FF\J 12F	12f\J
12DD\L 12D	12d\L
12BBB\ 12BB	12B\
12GGG\J 12GG	12G\J
=101	=101
4.CC\ 4.C	4.E</ 4.G< 4.c<
8CC\ 8C	8E</ 8G< 8c<
!	!LO:TX:t=P:problem=zapis poprawiany
4CC\ 4C	4F</ 4G< 4d<
!	!LO:TX:t=P:problem=zapis poprawiany
4BBB-X\ 4BB-X	4G</ 4c< 4e<
=102	=102
4AAA\ 4AA	4G\ 4c 4g
4AA\ 4A	4F\ 4c 4f
4r	4r
4AA\ 4G 4A	4G</ 4c#X< 4e<
=103	=103
4.DD\ 4.D	4.F</ 4.A< 4.d<
8DD\ 8D	8F</ 8A< 8d<
!	!LO:TX:t=P:problem=zapis poprawiany
4DD\ 4D	4G</ 4A< 4e<
4CC\ 4C	4A</ 4d< 4f<
=104	=104
4BBB\ 4BB	4A\ 4d 4a
4BB\ 4B	4G\ 4d 4g
4r	4r
!LO:TX:t=P:problem=zapis poprawiany	!
8GG\L 8G	4B\ 4d 4g
8FF\J	.
=105	=105
8EE\L	4.G\ 4.c 4.g
8C\	.
8E\	.
8C\J	8f\
8AA\L	8G\L 8c#X 8f
8E\	8e\
8G\	8d\
8E\J	8c#\J
=106	=106
8FF\L	16A\LL 16d
.	16e\
8D\	16d\
.	16c#X\JJ
8F\	8d\L
8D\J	8e\J
=-	=-
!LO:TX:t=P:problem=mixed beam	!
8DD/L	8A\L 8d 8f
8D\	8f\
8F\	8g\
8D\J	8a\J
=107	=107
8GG\L	8c\L 8e 8a
8C\	8g\
8E\	8f\
8C\J	8e\J
8GG\L	8G/L 8B 8e
8D\	8d/
8F\	8c/
8D\J	8B/J
=108	=108
!	!LO:N:vis=4
4.CC\ 4.C	4.c\ 4.e-X 4.g 4.cc
8CC\ 8C	8c\ 8cc
8BBB/L 8BB	8B\L 8b
8CC/ 8C	8c\ 8cc
8DD/ 8D	8d\ 8dd
8EE-X/J 8E-X	8e-X\J 8ee-X
=109	=109
!LO:N:vis=8	!
8.AAA-X/L 8.AA-X	8.g\L 8.cc 8.gg
16C/Jk 16F 16A-X	16f\Jk 16cc 16ff
4C/ 4F 4A-	4f\ 4cc 4ff
4r	4r
4E-X/	4e-X\ 4ee-X
=110	=110
4.FF\ 4.D 4.A-X	4.d\ 4.a-X 4.dd
*coll8	*
8DD\yy 8D	8d\ 8dd
8CC#X\Lyy 8C#X	8c#X\L 8cc#X
8DD\yy 8D	8d\ 8dd
8EE-X\yy 8E-X	8e-X\ 8ee-X
8FF\Jyy 8F	8f\J 8ff
*Xcoll8	*
=111	=111
8.BBB\L 8.BB	8.a-X\L 8.dd 8.aa-X
!LO:TX:t=P:problem=zapis poprawiany	!
16BB\Jk 16G 16B	16g\Jk 16dd 16gg
!LO:TX:t=P:problem=zapis poprawiany	!
4BB\ 4G 4B	4g\ 4dd 4gg
4r	4r
4g\	4gg\
=112	=112
*^	*
4.g/	8c\L 8e-X 8g	8cc\L 8gg
.	8d\	8bn\J
.	8e-\	8cc\L
8f/	8f\J	8aa-X\J
8f/L	8c\L 8f	8aa-\L
8e-/	8e-\	8gg\
8d/	8F\ 8d	8a-X\ 8ff
8c/J	8c\J	8ee\J
=113	=113	=113
4.d/	8F\L 8d	8a-X\L 8dd
.	8F#X\	8cc\
.	8G\	8g\ 8bn
8c/	8E-X\J 8c	8cc\J
2ryy	8A-X\L 8c	8cc\L 8ff
.	8G\ 8B-X	8een\
.	8F#\ 8A-	8ff\
.	8En\J 8G	8gg\J
*v	*v	*
!!LO:LB:g=original
=114	=114
*	*^
4.F\ 4.A-X	2ryy	8cc\L 8ff
.	.	8ccc\
.	.	8dd\ 8bbn
8E-X\ 8G	.	8cc\J 8ccc
8E-\L 8G	[>2gg/	8cc\L
8D\ 8F	.	8bn\
8C\ 8E-	.	8cc\
8BBn\J 8D	.	8dd\J
=115	=115	=115
4.C\	2gg/]	8ee-X\L
.	.	24dd\L
.	.	24ee-\
.	.	24ff\JJ
.	.	8ee-\L
8BB-X\	.	8dd\J
4AA-X\	4ff/	8cc\L
.	.	32bn\LL
.	.	32cc\
.	.	32dd\
.	.	32cc\JJJ
8GG\L	8ee-/L	8b-X\L
8FF\J	8dd/J	8a-X\J
*	*v	*v
=116	=116
4GG\	8a-X\L 8cc
.	8g\
4E-X\	8cc\
.	8c\J
!	!LO:TX:t=P:problem=bemol przed tr
2GG\ 2F 2Bn	2dTT\
=117	=117
16C\LL	4c\
16c\	.
16B\	.
16c\JJ	.
16d\LL	16r
16c\	16g\LL
16B\	16a\
16c\JJ	16g\JJ
16En\LL	8gg\L
16c\	.
16B\	8gg\
16c\JJ	.
16D\LL	8g\ 8b 8ff
16c\	.
!	!LO:TX:t=P:problem=zapis poprawiany
16B\	8ff\J
16c\JJ	.
=118	=118
16C\LL	8g\ 8cc 8ee
16c\	.
16B\	8r
16c\JJ	.
16B\LL	8f\ 8g 8dd
16A\	.
16B\	8r
16G\JJ	.
16c\LL	8e\ 8g 8cc
16B\	.
16c\	8r
16G\	.
16E\	4r
16G\	.
16E\	.
16C\JJ	.
=119	=119
16GG\LL	4d\ 4g 4b
16G\	.
16F#X\	.
16G\JJ	.
16A\LL	16r
16G\	16g\LL
16F#\	16a\
16G\JJ	16g\JJ
!LO:TX:t=P:problem=zapis poprawiany	!
16d\LL	8b\L 8ff
16G\	.
16F#X\	8ff\
16G\JJ	.
!LO:TX:t=P:problem=zapis poprawiany	!
16c\LL	8cc\ 8ee
16G\	.
16F#\	8ee\J
16G\JJ	.
=120	=120
16B\LL	8f\ 8g 8dd
16G\	.
16F#X\	8r
16G\JJ	.
16c\LL	8e\ 8g 8cc
16G\	.
16F#\	8r
16G\JJ	.
!LO:TX:t=P:problem=zapis poprawiany	!
16GG\LL	8d\ 8g 8b
16G\	.
16F#\	8r
16G\JJ	.
16D\LL	4r
16E\ 16G	.
16D\ 16Fn	.
16BB\JJ 16D	.
!!LO:LB:g=original
=121	=121
16E\LL	4c\ 4g 4cc
16c\	.
16B\	.
16c\JJ	.
16d\LL	16r
16c\	16cc\LL
16B\	16dd\
16c\JJ	16cc\JJ
16C\LL	8a\L 8ee 8aa
!LO:TX:t=P:problem=zapis poprawiany	!
16e\	.
16A\	8aa\
16e\JJ	.
16C#X\LL	8a\ 8ee 8gg
16e\	.
16A\	8gg\J
16e\JJ	.
=122	=122
!	!LO:N:vis=4
16D\LL	8a\ 8ff#X
16d\	.
16A\	8r
16d\JJ	.
16E\LL	8a\ 8ee
16c#X\	.
16G\	8r
16c#\JJ	.
16F#X\LL	4.a\ 4.dd
16d\	.
16A\	.
16d\JJ	.
16A\LL	.
16F#\	.
16D\	16ee\LL
16Cn\JJ	16ff#\JJ
=123	=123
16BB\LL	16dd\LL 16gg
16D\	16ff#X\
16G\	16aa\
16A\JJ	16gg\JJ
16B\LL	8dd\
16G\	.
16D\	8r
16C\JJ	.
16BB\LL	16dd\LL 16gg
16D\	16ff#\
16G\	16aa\
16A\JJ	16gg\JJ
16B\LL	8dd\
16G\	.
16D\	8r
16BB\JJ	.
=124	=124
16GG\LL	16dd\LL
16BB\	16cc#X\
16D\	16ee\
16F#X\JJ	16dd\JJ
16G\LL	8b\
16D\	.
16BB\	8r
16AA\JJ	.
16GG\LL	16b\LL
16BB\	16a#X\
16D\	16cc#\
16E\JJ	16b\JJ
16Fn\LL	8g\
16D\	.
16BB\	8r
16FF\JJ	.
=125	=125
8EE\L	16g\LL
.	16f#X\
16c\L	16a\
16d\JJ	16g\JJ
16e\LL	16cc\LL
16d\	16b\
16f\	16dd\
16e\JJ	16cc\JJ
8E\L	16g\LL
.	16f#\
16c\L	16a\
16d\JJ	16g\
16e\LL	16cc\
16d\	16b\
16f\	16dd\
16e\JJ	16cc\JJ
=126	=126
8F\L	16a\LL
.	16g#X\
!LO:TX:t=P:problem=zapis poprawiany	!
16e\L	16b\
16e\JJ	16a\JJ
16f\LL	16dd\LL
16e\	16cc#X\
16g\	16ee\
16f\JJ	16dd\JJ
16a\LL	16ff\LL
16g\	16ee\
16f\	16dd\
16e\JJ	16cc#\JJ
16d\LL	16dd\LL
16e\	16ccn\
16f\	16b\
16f#X\JJ	16a\JJ
!!LO:LB:g=original
=127	=127
8G\L 8d	16b\LL
.	16g\
8FF\	16b\
.	16dd\
8GG\	16gg\
.	16ff\
8G\J 8B	16ee\
.	16dd\JJ
8G\L 8c	16ee\LL
.	16cc\
8GG\	16ee\
.	16gg\
8GG\	16ccc\
.	16gg\
8G\J 8e	16ee\
.	16cc\JJ
=128	=128
8G\L 8d	16b\LL
.	16dd\
8GG\	16gg\
.	16bb\JJ
8GG\	16ddd\LL
.	16bb\
8F\J 8B	16gg\
.	16ff\JJ
8F\L 8c	16ee\LL
.	16gg\
8GG\	16ccc\
.	16eee\JJ
8GG\	16ggg\LL
.	16eee\
8G\J 8e	16ddd\
.	16ccc\JJ
=129	=129
16G\LL 16d	16bb\LL
16g\	16ggg\
16d\	16ddd\
16B\JJ	16bb\JJ
16G\LL	16gg\LL
16d\	16ddd\
16B\	16bb\
16G\JJ	16gg\JJ
16D\LL	16dd\LL
16B\	16bb\
16G\	16gg\
16D\JJ	16dd\JJ
16BB\LL	16b\LL
16G\	16gg\
16D\	16dd\
16BB\JJ	16b\JJ
=130	=130
4GG\	4g\
4G\ 4B 4d 4g	4b\ 4dd 4gg
4GGG\ 4GG	4B\ 4d 4g
4ryy	4r
=131	=131
*^	*
!LO:N:vis=2.	!	!
2G/	2C\	8r
.	.	8em/L
.	.	8d#X/
.	.	8e/J
4c/	2E\	8r
.	.	8f#X/L
4B-X/	.	8g/
.	.	8g#X/J
=132	=132	=132
2.A/	[<2.F\	8r
.	.	8a\L
.	.	8c\
.	.	8c#X\J
.	.	16qqe/
.	.	8d\L
.	.	8c#\
8B/L	8F\L]	8d\
8c#X/J	8E\J	8e\J
*v	*v	*
=133	=133
4D\	8d^^</L 8f
.	8g/
4C#X\	8e^^</ 8a
.	8g/J
4D\	8d^^</L 8g
.	16e/L
.	16f/J
8E\L	8c^^</ 8f
8F\J	8e/J
!!LO:LB:g=original
=134	=134
*^	*
2.B/	8G\L	4.d/
.	8F#X\J	.
.	[<4G\	.
.	.	8dd/
.	8G\L]	8ee/L
.	8Fn\	8dd/
8.G/L	8E\	8cc/
.	8D\J	8b/J
16G/Jk	.	.
=135	=135	=135
2e/	4C\	8gg\L
.	.	8cc\
.	[<4c\	8gg\
.	.	8gg#X\J
4f/	8c\L]	4aa\
.	8B\	.
4e/	8c\	[>4ggn\
.	8c#X\J	.
=136	=136	=136
[>2d/	4.d\	8gg\L]
.	.	8a\
.	.	8ff\
.	8c\	8ff#X\J
8d/L]	8B\L	8gg\L
8c/	8A\	8ffn\
8B/	8G\	8ee\
8A/J	8F\J	8dd\J
=137	=137	=137
.	.	32qqdd/
4GM/	8E\L	8cc\L
.	8D\	8b\
8c/L	8C\	8a\
8E/J	8C#X\J	8g\J
4D/	4D\	8g\L
.	.	8f\
8G/L	4BB\	8e\
8F/J	.	8d\J
=138	=138	=138
4E/	8C\L	4c/
.	8C\	.
4ryy	8BB\	4r
.	8AA\J	.
2ryy	8GG\L	2r
.	8FF\	.
.	8EE\	.
.	8DD\J	.
*v	*v	*
=139	=139
16CC/LL	2g\ 2ee 2gg
16GG/	.
!LO:TX:t=P:problem=zapis poprawiany	!
16AA/	.
16BB/JJ	.
16C\LL	.
16BB\	.
16C\	.
16D\JJ	.
!	!LO:TX:t=P:problem=zapis poprawiany
16E\LL	4cc\ 4gg 4ccc
16D\	.
16E\	.
16F\JJ	.
16G\LL	4b\ 4gg 4bb
16A\	.
16B\	.
16c\JJ	.
=140	=140
!LO:TX:t=P:problem=zapis poprawiany	!
16F\LL	2.a\ 2.ee 2.aa
16c\	.
16d\	.
16c\JJ	.
16A\LL	.
16F\	.
16C\	.
16D\JJ	.
16C\LL	.
16AA\	.
16FF\	.
16AA\JJ	.
16EE\LL	8b\L 8gg 8bb
16GG\	.
16FF\	8cc#X\J 8ccc#X
16EE\JJ	.
=141	=141
16DD\LL	8dd\L 8ff 8aa 8ddd
16FF\	.
16GG\	8cc#X\ 8ccc#X
16AA\JJ	.
16BB-X\LL	8dd\ 8ddd
16AA\	.
16BBn\	8ee\J 8eee
16C#X\JJ	.
16D\LL	8ee\L 8eee
16C#\	.
16D\	8dd\ 8ddd
16E\JJ	.
16F\LL	8dd\ 8ddd
16E\	.
16F\	8cc#\J 8ccc#
16F#X\JJ	.
!!LO:LB:g=original
=142	=142
!LO:TX:t=P:problem=zapis poprawiany	!
16G\LL	4.cc\ 4.gg 4.ccc
16g\	.
16f#X\	.
16g\JJ	.
16a\LL	.
16g\	.
16f#\	16dd\LL 16ddd
16e\JJ	16cc\JJ 16ccc
16d\LL	12b\L 12bb
16c\	.
.	12g\ 12gg
16B\	.
.	12a\J 12aa
16A\JJ	.
16G\LL	12b\L 12bb
16F\	.
.	12cc\ 12ccc
16E\	.
.	12dd\J 12ddd
16D\JJ	.
=143	=143
!LO:TX:t=P:problem=zapis poprawiany	!
16C\LL	4ee\ 4gg 4ccc 4eee
16c\	.
16BB\	.
16B\JJ	.
16C\LL	8dd#X\L 8ddd#X
16c\	.
16BB-X\	8ee\J 8eee
16B-X\JJ	.
.	32qqgg\ 32qqeee
16AA\LL	4ff\ 4ccc#X 4fff
16A\	.
16GG#X\	.
16G#X\JJ	.
16AA\LL	4ee\ 4eee
16A\	.
16GGn\	.
16Gn\JJ	.
=144	=144
16FF\LL	8dd\L 8aa 8ddd
16F\	.
16DD\	16ee\L 16eee
16D\JJ	16dd\JJ 16ddd
16AAA\LL	16cc#X\LL 16ccc#X
16AA\	16dd\ 16ddd
16GGG\	16ff\ 16fff
16GG\JJ	16ee\JJ 16eee
16FFF/LL	8dd\L 8ddd
16FF/	.
16EEE/	8ccn\J 8cccn
16EE/JJ	.
16FFF/LL	8b\L 8bb
16FF/	.
16FFF#X/	8a\J 8aa
16FF#X/JJ	.
=145	=145
16GGG/LL	12g\L 12ee 12gg
16GG/	.
.	12f#X\ 12ff#X
16CC/	.
.	12g\J 12gg
16C/JJ	.
16EE/LL	8.cc\L 8.ee 8.ccc
16E/	.
16FF/	.
16F/JJ	16e\Jk 16cc 16ee
16GG/LL	8.d\L 8.cc 8.dd
16G/	.
16FF#X/	.
16F#X/JJ	16d\Jk 16cc 16dd
16GG/LL	8.g\L 8.b 8.gg
16G/	.
16GGG/	.
16GG/JJ	16g\Jk 16b 16gg
=146	=146
!LO:TX:t=P:problem=mixed beam	!
8CC/L	8c\ 8e 8cc
8G\ 8c 8e	4g\
8G\ 8c 8e	.
8G\J 8c 8e	16cc\LL
.	16dd\JJ
8G\L 8c 8e	8ee\L
8G\ 8c 8e	8gg\
8GG\	8ff\
8G\J 8c#X 8e	8ee\J
=147	=147
8D\L	8dd\
8F\ 8A 8d	4a\
8F\ 8A 8d	.
8F\J 8A 8d	16dd\LL
.	16ee\JJ
=-	=-
!LO:TX:t=P:problem=mixed beam	!
8F\L 8A 8d	8ff\L
8F\ 8A 8d	8aa\
8FF/	8gg\
8F\J 8A 8d	8ff\J
=148	=148
8GG\L	8ee\L
8E\ 8G 8c	8ccc\
8E\ 8G 8c	8gg\
8E\J 8G 8c	8ee\J
8FF\L	8dd\L
8F\ 8G 8B	16aa\L
.	16gg\
!LO:TX:t=P:problem=zapis poprawiany	!
8F\	16gg\
.	16ff\
8D\J 8F 8G 8B	16ff\
.	16dd\JJ
=149	=149
8C\L	8cc\
8G\ 8c 8e	4gg\
8G\ 8c 8e	.
*	*8va
8G\J 8c 8e	16ccc\LL
.	16ddd\JJ
8G\L 8c 8e	16eee\LL
.	16ddd#X\
8G\J 8c 8e	16eee\
.	16ggg\JJ
8AA\L	16ggg\LL
.	16fff\
8A\J 8c#X 8g	16fff\
.	16eee\JJ
=150	=150
8D\L	8ddd\
8F\ 8A 8d	4aa\
8F\ 8A 8d	.
8F\J 8A 8d	16ddd\LL
.	16eee\JJ
8F\L 8A 8d	16fff\LL
.	16eee\
8F\J 8A 8d	16fff\
.	16aaa\JJ
8FF\L	16aaa\LL
.	16ggg\
8F\J 8A 8d	16ggg\
.	16fff\JJ
=151	=151
8GG\L	16eee\LL
.	16ggg\
!LO:TX:t=P:problem=zapis poprawiany	!
8G\ 8c 8e 8g	16cccc\
.	16bbb\JJ
8G\ 8c 8e 8g	16aaa\LL
.	16ggg\
8G\J 8c 8e 8g	16fff\
.	16eee\JJ
8GG\L	16ddd\LL
.	16ccc\
8G\ 8d 8f 8g	16bb\
.	16aa\JJ
8G\ 8d 8f 8g	16gg\LL
.	16ff\
8G\J 8d 8f 8g	16ee\
.	16dd\JJ
*	*X8va
=152	=152
16C\LL 16E	8cc\
16G\	.
16c\	8r
16B\JJ	.
!	!LO:TX:t=P:problem=zapis poprawiany
16AA\LL 16A	8e\ 8a 8cc 8ee
16G\	.
16F\	8r
16E\JJ	.
16D\LL	8f\ 8a 8dd 8ff
16C\	.
16BB\	8r
16AA\JJ	.
16GGG\LL 16GG	8f\ 8b 8gg
16FF\	.
16EE\	8r
16DD\JJ	.
!!LO:LB:g=original
=153	=153
*	*8va
8EE\L	16eee\LL
.	16ggg\
8G\ 8c 8g	16cccc\
.	16bbb\JJ
8G\ 8c 8g	16aaa\LL
.	16ggg\
8G\J 8c 8g	16fff\
.	16eee\JJ
8GG\L	16ddd\LL
.	16ccc\
8G\ 8d 8f 8g	16bb\
.	16aa\JJ
*	*X8va
8G\ 8d 8f 8g	16gg\LL
.	16ff\
8G\J 8d 8f 8g	16ee\
.	16dd\JJ
=154	=154
*	*X8va
16C\LL 16E	8cc\
16G\	.
16c\	8r
16B\JJ	.
16AA\LL 16A	8e\ 8a 8cc 8ee
16G\	.
16F\	8r
16E\JJ	.
16DD\LL 16D	8f\ 8a 8dd 8ff
16C\	.
16BB\	8r
16AA\JJ	.
16GGG\LL 16GG	8B\ 8f 8g 8b
16FF\	.
16EE\	8r
16DD\JJ	.
=155	=155
4.CCC\ 4.CC	4.c\ 4.e 4.g 4.cc
*8ba	*
8CC\ 8C	8c\ 8e 8g 8cc
4BBB\ 4BB	4d\ 4g 4dd
4BBB-X\ B4B-X	4e\ 4g 4cc 4ee
=156	=156
8AAA\L 8AA	8.g\L 8.cc 8.gg
*X8ba	*
8F\J 8A 8c	.
.	16f\Jk 16cc 16ff
4F\ 4A 4c	4f\ 4cc 4ff
4r	4r
4FF\ 4C 4F	4a\ 4cc 4ff 4aa
=157	=157
4GG\ 4C 4E 4G	4g\ 4cc 4ee 4gg
4r	4r
4GGG\ 4BBB 4EE 4GG	4d\ 4f 4g 4b
4r	4r
=158	=158
32qqCC\ 32qqEE 32qqGG 32qqC	8qqc\ 8qqe 8qqg 8qqcc
2CC\ 2EE 2GG 2C	2c;\ 2e 2g 2cc
!!LO:PB:g=original
==	==
*-	*-
!!!system-decoration: {(s1,s2)}
!!!RDF**kern: < = below
!!!RDF**kern: > = above
!!!ENC: Marta Chmielewska
!!!END: 2021-05-26
!!!ENC: Andrzej Gręziak
!!!END: 2021-05-08
!!!YEC: Copyright 2022 Narodowy Instytut Fryderyka Chopina (https://polishscores.org)
!!!YEM: License CC-BY-4.0 (https://creativecommons.org/licenses/by/4.0)
